X: 8241
T: Coradavon Lodge
R: reel
M: 4/4
K: Bminor
z|B2 dB cAAc|B2 dB f2 ec|BcdB cAAc|dfec B2 Bf|
B2 dB cAAc|B2 dB f2 ec|Bcde fdec|dfed B2||
Bc|d2 Af ddfd|a2 af efec|d2 Af ddfd|cAec B2
Bc|d2 Af ddfd|a2 af efec|defd edcA|dfec B2||

